icons/image-16.svg

<svg width="16" height="16" viewBox="0 0 16 16" xmlns="http://www.w3.org/2000/svg">
  <path fill-rule="evenodd" clip-rule="evenodd" d="M1.75 2.5C1.61193 2.5 1.5 2.61193 1.5 2.75V13.25C1.5 13.3881 1.61193 13.5 1.75 13.5H2.69087C2.70013 13.4897 2.70973 13.4795 2.71967 13.4696L8.79704 7.3922C9.45643 6.73281 10.5171 6.70631 11.2086 7.33195L14.5 10.3099V2.75C14.5 2.61193 14.3881 2.5 14.25 2.5H1.75ZM14.25 13.5H4.81056L9.85769 8.45286C9.95189 8.35867 10.1034 8.35488 10.2022 8.44426L14.5 12.3327V13.25C14.5 13.3881 14.3881 13.5 14.25 13.5ZM16 13.25V12.003V11.9972V2.75C16 1.7835 15.2165 1 14.25 1H1.75C0.783501 1 0 1.7835 0 2.75V13.25C0 14.2165 0.783502 15 1.75 15H14.25C15.2165 15 16 14.2165 16 13.25ZM5.5 6C5.5 6.27614 5.27614 6.5 5 6.5C4.72386 6.5 4.5 6.27614 4.5 6C4.5 5.72386 4.72386 5.5 5 5.5C5.27614 5.5 5.5 5.72386 5.5 6ZM7 6C7 7.10457 6.10457 8 5 8C3.89543 8 3 7.10457 3 6C3 4.89543 3.89543 4 5 4C6.10457 4 7 4.89543 7 6Z"/>
</svg>

<svg xmlns="http://www.w3.org/2000/svg" width="16" height="16" viewBox="0 0 16 16"><path fill-rule="evenodd" d="M1.75 2.5a.25.25 0 00-.25.25v10.5c0 .138.112.25.25.25h.94a.76.76 0 01.03-.03l6.077-6.078a1.75 1.75 0 012.412-.06L14.5 10.31V2.75a.25.25 0 00-.25-.25H1.75zm12.5 11H4.81l5.048-5.047a.25.25 0 01.344-.009l4.298 3.889v.917a.25.25 0 01-.25.25zm1.75-.25V2.75A1.75 1.75 0 0014.25 1H1.75A1.75 1.75 0 000 2.75v10.5C0 14.216.784 15 1.75 15h12.5A1.75 1.75 0 0016 13.25zM5.5 6a.5.5 0 11-1 0 .5.5 0 011 0zM7 6a2 2 0 11-4 0 2 2 0 014 0z"/></svg>
